icons/face-cry.svg

<svg width="24" height="24" viewBox="0 0 24 24" fill="none" xmlns="http://www.w3.org/2000/svg">
<path fill-rule="evenodd" clip-rule="evenodd" d="M10.0491 2.19215C11.9889 1.8063 13.9996 2.00433 15.8268 2.76121C17.6541 3.51809 19.2159 4.79981 20.3147 6.4443C21.4135 8.08879 22 10.0222 22 12L22 12.0035C21.998 12.5689 21.9478 13.1332 21.8499 13.6902C21.7542 14.2341 21.2357 14.5975 20.6918 14.5019C20.1479 14.4062 19.7845 13.8878 19.8801 13.3438C19.9582 12.8995 19.9983 12.4493 20 11.9982C19.9996 10.4166 19.5305 8.87054 18.6518 7.55544C17.7727 6.23985 16.5233 5.21447 15.0615 4.60897C13.5997 4.00347 11.9911 3.84504 10.4393 4.15372C8.88743 4.4624 7.46196 5.22433 6.34314 6.34315C5.22432 7.46197 4.4624 8.88743 4.15371 10.4393C3.84503 11.9911 4.00346 13.5997 4.60896 15.0615C5.21446 16.5233 6.23984 17.7727 7.55544 18.6518C8.87103 19.5308 10.4177 20 12 20C12.6165 20 13.2118 19.9321 13.7776 19.8031C14.316 19.6802 14.8521 20.0171 14.9749 20.5556C15.0978 21.094 14.7609 21.6301 14.2224 21.753C13.5081 21.9159 12.7635 22 12 22C10.0222 22 8.08879 21.4135 6.44429 20.3147C4.7998 19.2159 3.51808 17.6541 2.7612 15.8268C2.00433 13.9996 1.80629 11.9889 2.19214 10.0491C2.578 8.10929 3.5304 6.32746 4.92893 4.92894C6.32745 3.53041 8.10928 2.578 10.0491 2.19215ZM8 10C8 9.44772 8.44771 9 9 9H9.01C9.56228 9 10.01 9.44772 10.01 10C10.01 10.5523 9.56228 11 9.01 11H9C8.44771 11 8 10.5523 8 10ZM14 10C14 9.44772 14.4477 9 15 9H15.01C15.5623 9 16.01 9.44772 16.01 10C16.01 10.5523 15.5623 11 15.01 11H15C14.4477 11 14 10.5523 14 10ZM12 15.1995C11.6674 15.1995 11.3381 15.2659 11.0315 15.3947C10.7249 15.5236 10.4471 15.7123 10.2143 15.9499C9.82776 16.3443 9.19463 16.3508 8.80014 15.9643C8.40565 15.5778 8.39919 14.9446 8.78571 14.5501C9.2047 14.1225 9.7048 13.7828 10.2567 13.5509C10.8087 13.319 11.4013 13.1995 12 13.1995C12.5987 13.1995 13.1913 13.319 13.7433 13.5509C14.2952 13.7828 14.7953 14.1225 15.2143 14.5501C15.6008 14.9446 15.5943 15.5778 15.1999 15.9643C14.8054 16.3508 14.1722 16.3443 13.7857 15.9499C13.5529 15.7123 13.2751 15.5236 12.9685 15.3947C12.6618 15.2659 12.3326 15.1995 12 15.1995ZM18.9996 15C19.2843 14.9999 19.5556 15.1212 19.7454 15.3334L21.2022 16.9624C21.5982 17.3904 21.8609 17.9246 21.9582 18.4996C22.0561 19.0785 21.982 19.6733 21.7451 20.2105C21.5082 20.7476 21.119 21.2035 20.6255 21.5215C20.1321 21.8396 19.5562 22.0058 18.9692 21.9998C18.3821 21.9937 17.8098 21.8155 17.323 21.4873C16.8363 21.1591 16.4565 20.6953 16.2308 20.1534C16.0051 19.6114 15.9434 19.0152 16.0532 18.4385C16.1616 17.8694 16.4324 17.3441 16.8327 16.9258L18.2541 15.334C18.4437 15.1216 18.7149 15.0001 18.9996 15ZM19.0006 17.5008L18.3119 18.272C18.3025 18.2826 18.2929 18.2929 18.2831 18.303C18.1467 18.4433 18.0545 18.6206 18.0179 18.8128C17.9813 19.005 18.0018 19.2038 18.0771 19.3844C18.1523 19.565 18.2789 19.7196 18.4412 19.8291C18.6034 19.9385 18.7942 19.9978 18.9899 19.9999C19.1855 20.0019 19.3775 19.9465 19.542 19.8404C19.7065 19.7344 19.8362 19.5825 19.9152 19.4034C19.9942 19.2244 20.0188 19.0261 19.9862 18.8332C19.9536 18.6402 19.8651 18.4611 19.7316 18.318L19.7176 18.3026L19.0006 17.5008Z" fill="black"/>
</svg>

<svg
  width="24"
  height="24"
  viewBox="0 0 24 24"
  xmlns="http://www.w3.org/2000/svg"
>
  <path
    fill-rule="evenodd"
    clip-rule="evenodd"
    d="M10.05 2.192A10 10 0 0 1 22 12v.004a9.947 9.947 0 0 1-.15 1.686 1 1 0 0 1-1.97-.346c.078-.444.118-.895.12-1.346A8 8 0 1 0 12 20c.617 0 1.212-.068 1.778-.197a1 1 0 1 1 .444 1.95A9.99 9.99 0 0 1 12 22a10 10 0 0 1-1.95-19.808zM8 10a1 1 0 0 1 1-1h.01a1 1 0 0 1 0 2H9a1 1 0 0 1-1-1zm6 0a1 1 0 0 1 1-1h.01a1 1 0 1 1 0 2H15a1 1 0 0 1-1-1zm-2 5.2a2.5 2.5 0 0 0-1.786.75 1 1 0 0 1-1.428-1.4 4.5 4.5 0 0 1 6.428 0 1 1 0 0 1-1.428 1.4A2.501 2.501 0 0 0 12 15.2zm7-.2a1 1 0 0 1 .745.333l1.457 1.63a3 3 0 1 1-4.37-.037l1.422-1.592A1 1 0 0 1 19 15zm0 2.5l-.688.772a1 1 0 1 0 1.42.046l-.014-.015L19 17.5z"
  />
</svg>
